src/assets/mediaicons/twitter.svg

<svg fill="none" height="30" viewBox="0 0 37 30" width="37" xmlns="http://www.w3.org/2000/svg" xmlns:xlink="http://www.w3.org/1999/xlink"><clipPath id="a"><path d="m0 0h37v30h-37z"/></clipPath><g clip-path="url(#a)"><path d="m36.8481 3.59593c-1.1744.52318-2.4741.84004-3.7419 1.05005.6021-.09948 1.4847-1.17347 1.8401-1.60639.5404-.66134.9892-1.41664 1.2416-2.230885.0337-.064476.0561-.14369-.0074-.191587-.0823-.031317-.1328-.014738-.1983.01658-1.4156.747932-2.8779 1.287692-4.4375 1.672702-.129.03132-.2244 0-.3067-.07921-.129-.14369-.2506-.27817-.3871-.39054-.6545-.54898-1.3576-.980048-2.1486-1.296904-1.0397-.418176-2.1767-.5950259-3.2968-.5231807-1.0903.0700031-2.1599.3721217-3.1267.8695117-.9687.499233-1.8345 1.193733-2.5226 2.030093-.7125.86582-1.238 1.88824-1.5054 2.97328-.2599 1.04637-.2394 2.08167-.0804 3.13725.0243.175.0075.19895-.1533.175-6.0944-.89346-11.1453-3.04144-15.24436-7.64322-.17765-.19896-.27489-.19896-.42075.01473-1.795209 2.64907-.92378 6.90636 1.31836 8.99719.2992.2801.60588.5582.93687.8125-.11968.0239-1.61195-.1345-2.94152-.8125-.17765-.1105-.26741-.0478-.28237.1511-.01683.2855.00935.549.04862.8603.34408 2.6859 2.23092 5.1692 4.81714 6.1382.30668.1271.64702.2395.97614.2947-.58905.1271-1.19493.2174-2.88542.0884-.20944-.0405-.28985.0645-.20944.2635 1.26973 3.408 4.0093 4.4231 6.06073 4.9997.2749.0479.5498.0479.8246.1105-.0168.024-.0336.024-.0486.0479-.6807 1.0224-3.04061 1.7832-4.14018 2.1609-1.99904.689-4.17386.9984-6.286969.7921-.338472-.0497-.409532-.046-.5011625 0-.0935004.0571-.01122.1363.0972405.2229.428232.2782.865811.5269 1.309011.7645 1.34079.7001 2.73956 1.2582 4.20191 1.6562 7.55295 2.054 16.05965.5452 21.73135-5.0053 4.4525-4.3586 6.014-10.3696 6.014-16.38804 0-.2358.2823-.36476.4506-.49003 1.1594-.85845 2.0945-1.88455 2.9584-3.03039.1945-.25791.1964-.48634.1964-.58029v-.03132c0-.09579-.0019-.06816-.1515 0z" fill="#fff"/></g></svg>

<svg width="37" height="30" viewBox="0 0 37 30" fill="none" xmlns="http://www.w3.org/2000/svg">
<g clip-path="url(#clip0_320_6)">
<path d="M36.8481 3.59593C35.6737 4.11911 34.374 4.43597 33.1062 4.64598C33.7083 4.5465 34.5909 3.47251 34.9463 3.03959C35.4867 2.37825 35.9355 1.62295 36.1879 0.808705C36.2216 0.744229 36.244 0.665015 36.1805 0.617118C36.0982 0.585801 36.0477 0.60238 35.9822 0.633698C34.5666 1.38163 33.1043 1.92139 31.5447 2.3064C31.4157 2.33772 31.3203 2.3064 31.238 2.22719C31.109 2.0835 30.9874 1.94902 30.8509 1.83665C30.1964 1.28767 29.4933 0.856602 28.7023 0.539746C27.6626 0.12157 26.5256 -0.0552799 25.4055 0.0165653C24.3152 0.0865684 23.2456 0.388687 22.2788 0.886077C21.3101 1.38531 20.4443 2.07981 19.7562 2.91617C19.0437 3.78199 18.5182 4.80441 18.2508 5.88945C17.9909 6.93582 18.0114 7.97112 18.1704 9.0267C18.1947 9.2017 18.1779 9.22565 18.0171 9.2017C11.9227 8.30824 6.8718 6.16026 2.77274 1.55848C2.59509 1.35952 2.49785 1.35952 2.35199 1.57321C0.556781 4.22228 1.42821 8.47957 3.67035 10.5704C3.96955 10.8505 4.27623 11.1286 4.60722 11.3829C4.48754 11.4068 2.99527 11.2484 1.6657 10.5704C1.48805 10.4599 1.39829 10.5226 1.38333 10.7215C1.3665 11.007 1.39268 11.2705 1.43195 11.5818C1.77603 14.2677 3.66287 16.751 6.24909 17.72C6.55577 17.8471 6.89611 17.9595 7.22523 18.0147C6.63618 18.1418 6.0303 18.2321 4.33981 18.1031C4.13037 18.0626 4.04996 18.1676 4.13037 18.3666C5.4001 21.7746 8.13967 22.7897 10.1911 23.3663C10.466 23.4142 10.7409 23.4142 11.0157 23.4768C10.9989 23.5008 10.9821 23.5008 10.9671 23.5247C10.2864 24.5471 7.92649 25.3079 6.82692 25.6856C4.82788 26.3746 2.65306 26.684 0.539951 26.4777C0.201479 26.428 0.130419 26.4317 0.0387885 26.4777C-0.0547119 26.5348 0.0275685 26.614 0.136029 26.7006C0.564261 26.9788 1.00184 27.2275 1.44504 27.4651C2.78583 28.1652 4.1846 28.7233 5.64695 29.1213C13.1999 31.1753 21.7066 29.6665 27.3783 24.116C31.8308 19.7574 33.3923 13.7464 33.3923 7.72796C33.3923 7.49216 33.6746 7.3632 33.8429 7.23793C35.0023 6.37948 35.9374 5.35338 36.8013 4.20754C36.9958 3.94963 36.9977 3.7212 36.9977 3.62725V3.59593C36.9977 3.50014 36.9958 3.52777 36.8462 3.59593H36.8481Z" fill="white"/>
</g>
<defs>
<clipPath id="clip0_320_6">
<rect width="37" height="30" fill="white"/>
</clipPath>
</defs>
</svg>
